tools/download-figma-icons/icons/outlined-large/family-house.svg

<svg width="64" height="64" viewBox="0 0 64 64" fill="none" xmlns="http://www.w3.org/2000/svg"><path fill-rule="evenodd" clip-rule="evenodd" d="M61 27.999h-3.5a1.5 1.5 0 0 0-1.5 1.5v31.464h-3.028l-.243-12.971c-.123-3.646-.693-9.149-2.899-11.659A6.479 6.479 0 0 0 52 31.499c0-3.584-2.916-6.5-6.5-6.5a6.508 6.508 0 0 0-6.5 6.5c0 1.916.839 3.637 2.163 4.827-2.2 2.507-2.769 8.017-2.892 11.667l-.123 6.555c-.464-1.309-1.169-2.404-2.033-3.195A5.979 5.979 0 0 0 38 46.998a6.005 6.005 0 0 0-6-5.999c-3.309 0-6 2.69-6 5.999 0 1.716.728 3.261 1.885 4.355-.921.843-1.657 2.039-2.119 3.464l-.037-1.187c-.123-3.535-.69-8.864-2.88-11.315A6.477 6.477 0 0 0 25 37.499c0-3.584-2.916-6.5-6.5-6.5a6.508 6.508 0 0 0-6.5 6.5c0 1.907.831 3.619 2.144 4.81-2.185 2.446-2.75 7.784-2.873 11.322l-.225 7.332H8V29.499a1.5 1.5 0 0 0-1.5-1.5H3v-3.732L32 3.349l29 20.918v3.732Zm-17.091 10h3.153c.812 0 2.428 2.961 2.668 10.072l.242 12.892h-8.943l.241-12.879c.241-7.127 1.837-10.085 2.639-10.085Zm1.591-3c-1.93 0-3.5-1.57-3.5-3.5s1.57-3.5 3.5-3.5 3.5 1.57 3.5 3.5-1.57 3.5-3.5 3.5ZM31.151 52.998h1.698c1.269 0 2.74 1.913 2.906 4.761l.185 3.203-.106.001H28.06l.185-3.203c.166-2.849 1.637-4.762 2.906-4.762Zm.849-3c-1.654 0-3-1.346-3-3s1.346-3 3-3 3 1.346 3 3-1.346 3-3 3Zm-15.091-6h3.153c.813 0 2.429 2.856 2.669 9.73l.221 7.235h-8.904l.221-7.231c.24-6.879 1.837-9.734 2.64-9.734Zm1.591-2.999c-1.93 0-3.5-1.57-3.5-3.5s1.57-3.5 3.5-3.5 3.5 1.57 3.5 3.5-1.57 3.5-3.5 3.5Zm-5.5-35h4.042v4.439L13 13.354V5.999Zm50.378 16.283-30.5-22a1.508 1.508 0 0 0-1.756 0l-11.08 7.992V4.499a1.5 1.5 0 0 0-1.5-1.5H11.5a1.5 1.5 0 0 0-1.5 1.5v11.019L.622 22.282A1.5 1.5 0 0 0 0 23.499v6a1.5 1.5 0 0 0 1.5 1.5H5v31.464a1.5 1.5 0 0 0 1.5 1.5h4.454l-.001.037 15.094-.017-.001-.02h3.367l2.601.035 3.841-.035h2.118l-.001.037 15.056-.017v-.02H57.5a1.5 1.5 0 0 0 1.5-1.5V30.999h3.5a1.5 1.5 0 0 0 1.5-1.5v-6a1.5 1.5 0 0 0-.622-1.217Z" fill="currentColor"/></svg>

<svg width="64" height="64" viewBox="0 0 64 64" fill="none" xmlns="http://www.w3.org/2000/svg">
<path fill-rule="evenodd" clip-rule="evenodd" d="M61 27.999H57.5C56.672 27.999 56 28.671 56 29.499V60.963H52.972L52.729 47.992C52.606 44.346 52.036 38.843 49.83 36.333C51.158 35.142 52 33.419 52 31.499C52 27.915 49.084 24.999 45.5 24.999C41.916 24.999 39 27.915 39 31.499C39 33.415 39.839 35.136 41.163 36.326C38.963 38.833 38.394 44.343 38.271 47.993L38.148 54.548C37.684 53.239 36.979 52.144 36.115 51.353C37.272 50.259 38 48.714 38 46.998C38 43.689 35.309 40.999 32 40.999C28.691 40.999 26 43.689 26 46.998C26 48.714 26.728 50.259 27.885 51.353C26.964 52.196 26.228 53.392 25.766 54.817L25.729 53.63C25.606 50.095 25.039 44.766 22.849 42.315C24.166 41.125 25 39.409 25 37.499C25 33.915 22.084 30.999 18.5 30.999C14.916 30.999 12 33.915 12 37.499C12 39.406 12.831 41.118 14.144 42.309C11.959 44.755 11.394 50.093 11.271 53.631L11.046 60.963H8V29.499C8 28.671 7.328 27.999 6.5 27.999H3V24.267L32 3.349L61 24.267V27.999ZM43.909 37.999H47.062C47.874 37.999 49.49 40.96 49.73 48.071L49.972 60.963H41.029L41.27 48.084C41.511 40.957 43.107 37.999 43.909 37.999ZM45.5 34.999C43.57 34.999 42 33.429 42 31.499C42 29.569 43.57 27.999 45.5 27.999C47.43 27.999 49 29.569 49 31.499C49 33.429 47.43 34.999 45.5 34.999ZM31.151 52.998H32.849C34.118 52.998 35.589 54.911 35.755 57.759L35.94 60.962L35.834 60.963H28.06L28.245 57.76C28.411 54.911 29.882 52.998 31.151 52.998ZM32 49.998C30.346 49.998 29 48.652 29 46.998C29 45.344 30.346 43.998 32 43.998C33.654 43.998 35 45.344 35 46.998C35 48.652 33.654 49.998 32 49.998ZM16.909 43.998H20.062C20.875 43.998 22.491 46.854 22.731 53.728L22.952 60.963H14.048L14.269 53.732C14.509 46.853 16.106 43.998 16.909 43.998ZM18.5 40.999C16.57 40.999 15 39.429 15 37.499C15 35.569 16.57 33.999 18.5 33.999C20.43 33.999 22 35.569 22 37.499C22 39.429 20.43 40.999 18.5 40.999ZM13 5.999H17.042V10.438L13 13.354V5.999ZM63.378 22.282L32.878 0.282C32.353 -0.094 31.647 -0.094 31.122 0.282L20.042 8.274V4.499C20.042 3.671 19.37 2.999 18.542 2.999H11.5C10.672 2.999 10 3.671 10 4.499V15.518L0.622 22.282C0.231 22.564 0 23.017 0 23.499V29.499C0 30.327 0.672 30.999 1.5 30.999H5V62.463C5 63.291 5.672 63.963 6.5 63.963H10.954L10.953 64L26.047 63.983L26.046 63.963H29.413L32.014 63.998L35.855 63.963H37.973L37.972 64L53.028 63.983V63.963H57.5C58.328 63.963 59 63.291 59 62.463V30.999H62.5C63.328 30.999 64 30.327 64 29.499V23.499C64 23.017 63.769 22.564 63.378 22.282Z" fill="black"/>
</svg>
